style-guide/assets/xd-icons-lock-tiny.svg

<?xml version="1.0" encoding="UTF-8"?>
<svg width="12px" height="12px" viewBox="0 0 12 12" version="1.1" xmlns="http://www.w3.org/2000/svg" xmlns:xlink="http://www.w3.org/1999/xlink">
    <!-- Generator: Sketch 51.3 (57544) - http://www.bohemiancoding.com/sketch -->
    <title>lock</title>
    <desc>Created with Sketch.</desc>
    <defs></defs>
    <g id="lock" stroke="none" stroke-width="1" fill="none" fill-rule="evenodd">
        <path d="M4,4 L8,4 C8,2.897 7.103,2 6,2 C4.897,2 4,2.897 4,4 Z M3,10 L9,10 L9,6 L3,6 L3,10 Z M10,12 L2,12 C1.448,12 1,11.553 1,11 L1,5 C1,4.448 1.448,4 2,4 C2,1.795 3.794,0 6,0 C8.206,0 10,1.795 10,4 C10.552,4 11,4.448 11,5 L11,11 C11,11.553 10.552,12 10,12 Z" id="Fill-1" fill="#000000"></path>
    </g>
</svg>

<svg viewBox="0 0 12 12" xmlns="http://www.w3.org/2000/svg">
  <path d="M4 4h4c0-1.103-.897-2-2-2s-2 .897-2 2zm-1 6h6V6H3v4zm7 2H2a1 1 0 0 1-1-1V5a1 1 0 0 1 1-1c0-2.205 1.794-4 4-4s4 1.795 4 4a1 1 0 0 1 1 1v6a1 1 0 0 1-1 1z" fill="#000" fill-rule="evenodd"/>
</svg>
